X:259316599915017
T:8-11-8-3-3-5-11-7-2-8-10-11-8-7-9-5
%%setfont-1 Courier-Bold 8
T:$1K.516f::152:87:171:63:146:2:147:91:70:155:19:164:43:162:72:170::$0
T:$1Perm. No.: 259316599915017$0
M:3/8
L:1/8
Q:1/8=111
%%staves [1 2]
V:1 clef=treble
V:2 clef=bass
K:C
%1
[V:1]|: gf/e/d/c/ |\
[V:2]|: [E,2C,2]z |\
%2
[V:1] gce |\
[V:2] [E,2C,2][G,C,] |\
%3
[V:1] B/c/d/e/f/d/ |\
[V:2] [G,2G,,2][G,B,,] |\
%4
[V:1] e/c/B/c/G |\
[V:2] C,2z |\
%5
[V:1] [d^F][^fd][af] |\
[V:2] C,C,C,   |\
%6
[V:1] A^F/G/B/g/ |\
[V:2] [G,2B,,2]z |\
%7
[V:1] e/c'/b/g/a/^f/ \
[V:2] C,D,D,, \
%8a
[V:1]|1 [g2d2B2G2]z :|2
[V:2]|1 G,,G,/=F,/E,/D,/ :|2
%8b
[V:1] [g2d2B2G2]z |:\
[V:2] G,,B,/G,/^F,/E,/ |:\
%9
[V:1] ^fa/f/d/f/ |\
[V:2] D,2C, |\
%10
[V:1] g/b/g/d/B/G/ |\
[V:2] [D,2B,,2]z |\
%11
[V:1] e/c/eg |\
[V:2] [G,2C,2][E,C,] |\
%12
[V:1] dG2 |\
[V:2] G,/^F,/G,/D,/B,,/G,,/ |\
%13
[V:1] gf/e/d/c/ |\
[V:2] [E,2C,2]z |\
%14
[V:1] e/d/e/g/c'/g/ |\
[V:2] [G,2C,2][E,C,] |\
%15
[V:1] f/e/d/c/B/d/ |\
[V:2] F,2G, |\
%16
[V:1] c2z :|]
[V:2] C,G,,C,, :|]
